X: 35823
T: Saltón De Candamu
R: polka
M: 2/4
K: Dmajor
M:4/4
|:dcAF|D3 F EF/E/ DE|FB B/B/B dcAF|D2 FD EDCE|DEFA dcAF|
D3 F EF/E/ DE|FB B/B/B dcAF|D2 FD EDCE|DEFD E2:|
|:EA|FB B/B/B dBAF|FE E2 DEEA|FBAF EDCE|DEFD E2EA|
FB B/B/B dBAF|FE E2 DEEA|FBAF EDCE|1 ,2 DEFA:|3 D6 z2||

